!!!!SEGMENT: pl-stab--26a--009_nowakiewicz-kazimierz--missa-in-d-agnus-dei.krn
!!!cenid: 18xx:3519
!!!COM: Nowakiewicz, Kazimierz
!!!COM-rismID: pe30020309
!!!CDT: <1800->1824
!!!CNT: Polish
!!!OPR: Missa in D
!!!OTL: Agnus Dei
!!!OMV: 009
!!!PDT: 1810
!!!AGN:
!!!SMS-siglum: PL-STAb
!!!SMS-shelfmark: 26a
!!!SMS-shelfwork: 001-009 M
!!!SMS-variant:
!!!SMS-altvar:
!!!NIFC-rismSourceID: 301050704
!!!NIFC-rismChildID: 301050704
!!!NIFC-islandoraID: pl-stab:3636
!!!URL-pdf-islandora: https://repozytorium.nifc.pl/islandora/object/pl-stab%3A3636/datastream/PDF/view
!!!URL-scan: https://polish.musicsources.pl/pl/lokalizacje/galeria/rekopisy/4469 @EN{Scan on Polish Music Sources Website} @PL{Skany w portalu Dziedzictwo Muzyki Polskiej w otwartym dostępie}
!!!IIIF:
!!!ONB-nifc: UWAGA: części Mszy: 1. Kyrie, 2. Gloria, 3. Credo, 4. Et incarnatus, 5. Et resurrexit, 6. Sanctus, 7. Benedictus, 8. Osanna, 9. Agnus Dei, 10. Dona nobis
!!!AIN: 1 alto 1 bass 2 clrno 2 cor 2 oboe 1 organ 1 soprn 1 tenor 1 viola 2 violn
!!!OMD:
!!!OMD-mod: Adagio
!!!key: d
**kern	**fba	**dynam	**kern	**dynam	**kern	**dynam	**kern	**kern	**text	**dynam	**kern	**text	**dynam	**kern	**text	**dynam	**kern	**text	**dynam	**kern	**dynam	**kern	**dynam	**kern	**dynam	**kern	**dynam
*part12	*part12	*part12	*part11	*part11	*part10	*part10	*part9	*part8	*part8	*part8	*part7	*part7	*part7	*part6	*part6	*part6	*part5	*part5	*part5	*part4	*part4	*part3	*part3	*part2	*part2	*part1	*part1
*staff12	*staff12	*	*staff11	*	*staff10	*	*staff9	*staff8	*staff8	*	*staff7	*staff7	*	*staff6	*staff6	*	*staff5	*staff5	*	*staff4	*	*staff3	*	*staff2	*	*staff1	*
*I"Organo	*	*	*I"Alto viola	*	*I"Violino Secundo 1mo	*	*I"[Violino I]	*I"Basso	*	*	*I"Tenore	*	*	*I"Alto	*	*	*I"Canto	*	*	*I"Clarino Secundo et Cornu	*	*I"Clarino Primo et Cornu	*	*I"Oboe Secundo	*	*I"Oboe Primo	*
*	*	*	*mI"Viola	*	*mI"Violino II	*	*mI"Violino I	*	*	*	*	*	*	*	*	*	*mI"Soprano	*	*	*mI"Clarino ed Corno II	*	*mI"Clarino ed Corno I	*	*mI"Oboe II	*	*mI"Oboe I	*
*I'org	*	*	*I'vla	*	*I'vl 2	*	*I'vl 1	*I'B	*	*	*I'T	*	*	*I'A	*	*	*I'S	*	*	*I'clno & cor 2	*	*I'clno & cor 1	*	*I'ob 2	*	*I'ob 1	*
*Iorgan	*	*	*Iviola	*	*Ivioln	*	*Ivioln	*Ibass	*	*	*Itenor	*	*	*Ialto	*	*	*Isoprn	*	*	*Iclrno&Icor	*	*Iclrno&Icor	*	*Ioboe	*	*Ioboe	*
*ICklav	*	*	*ICstr	*	*ICstr	*	*ICstr	*ICvox	*	*	*ICvox	*	*	*ICvox	*	*	*ICvox	*	*	*ICbras	*	*ICbras	*	*ICww	*	*ICww	*
*clefF4	*	*	*clefC3	*	*clefG2	*	*clefG2	*clefF4	*	*	*clefC4	*	*	*clefC3	*	*	*clefC1	*	*	*clefG2	*	*clefG2	*	*clefG2	*	*clefG2	*
*	*	*	*	*	*	*	*	*	*	*	*mclefGv2	*	*	*mclefG2	*	*	*mclefG2	*	*	*	*	*	*	*	*	*	*
*	*	*	*	*	*	*	*	*	*	*	*	*	*	*	*	*	*	*	*	*ITrd-1c-2	*	*ITrd-1c-2	*	*	*	*	*
!	!	!	!	!	!	!	!LO:MO:mod=*tacet	!	!	!	!	!	!	!	!	!	!	!	!	!	!	!	!	!	!	!	!
*	*	*	*	*	*	*	*null	*	*	*	*	*	*	*	*	*	*	*	*	*	*	*	*	*	*	*	*
*k[b-]	*	*	*k[b-]	*	*k[b-]	*	*k[b-]	*k[b-]	*	*	*k[b-]	*	*	*k[b-]	*	*	*k[b-]	*	*	*k[f#c#]	*	*k[f#c#]	*	*k[b-]	*	*k[b-]	*
*d:	*	*	*d:	*	*d:	*	*d:	*d:	*	*	*d:	*	*	*d:	*	*	*d:	*	*	*d:	*	*d:	*	*d:	*	*d:	*
*M4/4	*	*	*M4/4	*	*M4/4	*	*M4/4	*M4/4	*	*	*M4/4	*	*	*M4/4	*	*	*M4/4	*	*	*M4/4	*	*M4/4	*	*M4/4	*	*M4/4	*
*met(c)	*	*	*met(c)	*	*met(c)	*	*met(c)	*met(c)	*	*	*met(c)	*	*	*met(c)	*	*	*met(c)	*	*	*met(c)	*	*met(c)	*	*met(c)	*	*met(c)	*
*mmet(c)	*	*	*mmet(c)	*	*mmet(c)	*	*mmet(c)	*mmet(c)	*	*	*mmet(c)	*	*	*mmet(c)	*	*	*mmet(c)	*	*	*mmet(c)	*	*mmet(c)	*	*mmet(c)	*	*mmet(c)	*
=1	=1	=1	=1	=1	=1	=1	=1	=1	=1	=1	=1	=1	=1	=1	=1	=1	=1	=1	=1	=1	=1	=1	=1	=1	=1	=1	=1
*	*	*	*tremolo	*	*tremolo	*	*	*	*	*	*	*	*	*	*	*	*	*	*	*	*	*	*	*	*	*	*
!	!	!LO:MO:mod=!LO&colon;DY&colon;ed=brack	!	!LO:MO:mod=!LO&colon;DY&colon;ed=brack	!	!LO:MO:mod=!LO&colon;DY&colon;ed=brack	!	!	!	!	!	!	!	!	!	!	!	!	!	!	!	!	!	!	!	!	!
!LO:TX:t=P:problem=diminuendolike accent	!	!null	!	!null	!	!null	!	!	!	!	!	!	!	!	!	!	!	!	!	!LO:TX:a:t=adagio:mod=	!	!LO:TX:a:t=adagio:mod=	!	!LO:TX:t=P:problem=diminuendolike accent	!	!LO:TX:t=P:problem=diminuendolike accent	!
!LO:TX:a:t=adagio:mod=	!	!LO:MO:null:mod=f	!LO:TX:a:rj:t=adagio:mod=	!LO:MO:null:mod=f	!LO:TX:a:t=adagio:mod=	!LO:MO:null:mod=f	!LO:TX:t=P:problem=zgodnie z RISM "Partia vl 1 zaginęła"	!LO:TX:a:t=adagio:mod=	!	!	!LO:TX:a:t=adagio:mod=	!	!	!LO:TX:a:t=adagio:mod=	!	!	!LO:TX:a:t=adagio:mod=	!	!	!LO:TX:a:t=in D.:mod=	!	!LO:TX:a:t=in D.:mod=	!LO:DY:t=f.:mod=%s	!LO:TX:a:t=adagio:mod=	!LO:MO:mod=f	!LO:TX:a:t=adagio:mod=	!LO:MO:null:mod=f
8D^\	.	.	8A/L 8D/	.	8f/L 8d/	.	1ryy	0r	.	.	00r	.	.	00r	.	.	00r	.	.	4d/	f	4dd\	f	4.d^/	fp	4.dd^\	.
4F\	.	.	8A/ 8D/	.	8f/ 8d/	.	.	.	.	.	.	.	.	.	.	.	.	.	.	.	.	.	.	.	.	.	.
.	.	.	8A/ 8D/	.	8f/ 8d/	.	.	.	.	.	.	.	.	.	.	.	.	.	.	4r	.	4r	.	.	.	.	.
8E\	.	.	8A/J 8D/	.	8f/J 8d/	.	.	.	.	.	.	.	.	.	.	.	.	.	.	.	.	.	.	8e/	.	8ee\	.
!LO:TX:t=P:problem=diminuendolike accent	!	!	!	!	!	!	!	!	!	!	!	!	!	!	!	!	!	!	!	!	!	!	!	!LO:TX:t=P:problem=diminuendolike accent	!	!LO:TX:t=P:problem=diminuendolike accent	!
8D^\	.	.	8A/L 8D/	.	8f/L 8d/	.	.	.	.	.	.	.	.	.	.	.	.	.	.	4d/	.	4dd\	.	4.f^/	.	4.ff^\	.
4A\	.	.	8A/ 8D/	.	8f/ 8d/	.	.	.	.	.	.	.	.	.	.	.	.	.	.	.	.	.	.	.	.	.	.
.	.	.	8A/ 8D/	.	8f/ 8d/	.	.	.	.	.	.	.	.	.	.	.	.	.	.	4r	.	4r	.	.	.	.	.
8D\	.	.	8A/J 8D/	.	8f/J 8d/	.	.	.	.	.	.	.	.	.	.	.	.	.	.	.	.	.	.	8d/	.	8dd\	.
=2	=2	=2	=2	=2	=2	=2	=2	=2	=2	=2	=2	=2	=2	=2	=2	=2	=2	=2	=2	=2	=2	=2	=2	=2	=2	=2	=2
!	!	!	!	!	!	!	!	!	!	!	!	!	!	!	!	!	!	!	!	!	!	!	!	!	!	!	!LO:DY:mod= :t=for
8C#X\L	.	.	8A/L 8C#X/	.	16b-X/LL 16G/	.	1ryy	.	.	.	.	.	.	.	.	.	.	.	.	1r	.	1r	.	8a\L	.	8ee\L	f
.	.	.	.	.	16b-/ 16G/	.	.	.	.	.	.	.	.	.	.	.	.	.	.	.	.	.	.	.	.	.	.
8.B-\J	.	.	8A/ 8C#/	.	16b-/ 16G/	.	.	.	.	.	.	.	.	.	.	.	.	.	.	.	.	.	.	8ee\	.	8gg\	.
.	.	.	.	.	16b-/ 16G/	.	.	.	.	.	.	.	.	.	.	.	.	.	.	.	.	.	.	.	.	.	.
.	.	.	8A/ 8C#/	.	16b-X/ 16G/	.	.	.	.	.	.	.	.	.	.	.	.	.	.	.	.	.	.	8ee\	.	8gg\	.
16A\LL	.	.	.	.	16b-/ 16G/	.	.	.	.	.	.	.	.	.	.	.	.	.	.	.	.	.	.	.	.	.	.
16G\	.	.	8A/J 8C#/	.	16b-/ 16G/	.	.	.	.	.	.	.	.	.	.	.	.	.	.	.	.	.	.	8ee\J	.	8gg\J	.
16F\JJ	.	.	.	.	16b-/JJ 16G/	.	.	.	.	.	.	.	.	.	.	.	.	.	.	.	.	.	.	.	.	.	.
*	*	*	*	*	*	*	*	*	*	*	*	*	*	*	*	*	*	*	*	*	*	*	*	*2\right	*	*2\right	*
*	*	*	*	*	*	*	*	*	*	*	*	*	*	*	*	*	*	*	*	*	*	*	*	*tremolo	*	*tremolo	*
!	!	!	!	!	!	!	!	!	!	!	!	!	!	!	!	!	!	!	!	!	!	!	!	!LO:SIC:s=8eeL	!	!	!
16E\LL	.	.	8A/L 8C#/	.	16b-X/LL 16G/	.	.	.	.	.	.	.	.	.	.	.	.	.	.	.	.	.	.	8ee'\L	.	8gg\L	.
16F\	.	.	.	.	16b-/ 16G/	.	.	.	.	.	.	.	.	.	.	.	.	.	.	.	.	.	.	.	.	.	.
!	!	!	!	!	!	!	!	!	!	!	!	!	!	!	!	!	!	!	!	!	!	!	!	!LO:SIC:s=8ee	!	!	!
16G\	.	.	8A/ 8C#/	.	16b-/ 16G/	.	.	.	.	.	.	.	.	.	.	.	.	.	.	.	.	.	.	8ee'\	.	8gg\	.
16F\JJ	.	.	.	.	16b-/ 16G/	.	.	.	.	.	.	.	.	.	.	.	.	.	.	.	.	.	.	.	.	.	.
!	!	!	!	!	!	!	!	!	!	!	!	!	!	!	!	!	!	!	!	!	!	!	!	!LO:SIC:s=8ee	!	!	!
16E/LL	.	.	8A/ 8C#/	.	16b-X/ 16G/	.	.	.	.	.	.	.	.	.	.	.	.	.	.	.	.	.	.	8ee'\	.	8gg\	.
16D/	.	.	.	.	16b-/ 16G/	.	.	.	.	.	.	.	.	.	.	.	.	.	.	.	.	.	.	.	.	.	.
!	!	!	!	!	!	!	!	!	!	!	!	!	!	!	!	!	!	!	!	!	!	!	!	!LO:SIC:s=8eeJ	!	!	!
16C#X/	.	.	8A/J 8C#/	.	16b-/ 16G/	.	.	.	.	.	.	.	.	.	.	.	.	.	.	.	.	.	.	8ee'\J	.	8gg\J	.
16E/JJ	.	.	.	.	16b-/JJ 16G/	.	.	.	.	.	.	.	.	.	.	.	.	.	.	.	.	.	.	.	.	.	.
*	*	*	*Xtremolo	*	*Xtremolo	*	*	*	*	*	*	*	*	*	*	*	*	*	*	*	*	*	*	*Xtremolo	*	*Xtremolo	*
=3	=3	=3	=3	=3	=3	=3	=3	=3	=3	=3	=3	=3	=3	=3	=3	=3	=3	=3	=3	=3	=3	=3	=3	=3	=3	=3	=3
!	!	!	!	!	!	!	!	!LO:TX:a:t=Solo:mod=	!	!	!	!	!	!	!	!	!	!	!	!	!	!	!	!	!LO:DY:mod= :t=for	!	!
4D\	.	.	4A/ 4D/	.	4a/ 4d/	.	1ryy	4r	.	.	.	.	.	.	.	.	.	.	.	4d/	.	4dd\	.	4dd\	f	4ff\	.
!	!	!	!	!	!	!	!	!LO:SIC:s=(16dLL	!	!	!	!	!	!	!	!	!	!	!	!	!	!	!	!	!	!	!
!	!	!	!	!	!	!	!	!LO:TX:a:i:t= :mod=solo	!	!	!	!	!	!	!	!	!	!	!	!	!	!	!	!	!	!	!
4r	.	.	4r	.	4r	.	.	(16d\LL	A-	.	.	.	.	.	.	.	.	.	.	4r	.	4r	.	4r	.	4r	.
!	!	!	!	!	!	!	!	!LO:SIC:s=16AJJ	!	!	!	!	!	!	!	!	!	!	!	!	!	!	!	!	!	!	!
.	.	.	.	.	.	.	.	16A\J)	.	.	.	.	.	.	.	.	.	.	.	.	.	.	.	.	.	.	.
!	!	!	!	!	!	!	!	!LO:SIC:s=8A	!	!	!	!	!	!	!	!	!	!	!	!	!	!	!	!	!	!	!
.	.	.	.	.	.	.	.	8A\J	-gnus	.	.	.	.	.	.	.	.	.	.	.	.	.	.	.	.	.	.
!	!	!	!	!	!	!	!	!	!	!	!	!	!	!	!	!	!	!	!	!	!	!	!	!	!	!	!LO:MO:null:mod=pp
8r	.	.	8r	.	8r	.	.	4B-sSSs\	De-	.	.	.	.	.	.	.	.	.	.	2r	.	2r	.	4gg\	pp	4bb-\	.
!	!	!	!	!LO:MO:mod=!LO&colon;DY&colon;ed=brack	!	!LO:MO:mod=!LO&colon;DY&colon;ed=brack	!	!	!	!	!	!	!	!	!	!	!	!	!	!	!	!	!	!	!	!	!
!	!	!	!	!null	!	!null	!	!	!	!	!	!	!	!	!	!	!	!	!	!	!	!	!	!	!	!	!
!	!	!LO:DY:t=p.:mod=%s	!LO:SIC:s=(8C#L	!LO:MO:null:mod=p	!	!LO:MO:null:mod=p	!	!	!	!	!	!	!	!	!	!	!	!	!	!	!	!	!	!	!	!	!
(8C#X/L	.	p	8C#X/L	.	(8g/L	.	.	.	.	.	.	.	.	.	.	.	.	.	.	.	.	.	.	.	.	.	.
!	!	!	!	!	!	!	!	!	!	!	!	!	!	!	!	!	!	!	!	!	!	!	!	!	!	!	!LO:MO:mod=.
8D/	.	.	8D/	.	8f/	.	.	8A\	-i	.	.	.	.	.	.	.	.	.	.	.	.	.	.	8ff\L	.	8aa\L	pp
!	!	!	!LO:SIC:s=8EJ)	!	!	!	!	!	!	!	!	!	!	!	!	!	!	!	!	!	!	!	!	!	!	!	!
8E/J)	.	.	8E/J	.	8e/J)	.	.	8G\	qui	.	.	.	.	.	.	.	.	.	.	.	.	.	.	8ee\J	.	8gg\J	.
!	!	!	!	!	!	!	!	!	!	!	!	!	!	!	!	!	!	!	!	!LO:LB:g=original	!	!	!	!	!	!	!
=4	=4	=4	=4	=4	=4	=4	=4	=4	=4	=4	=4	=4	=4	=4	=4	=4	=4	=4	=4	=4	=4	=4	=4	=4	=4	=4	=4
*	*	*	*	*	*	*	*	*	*	*	*	*	*	*	*	*	*	*	*	*	*	*	*	*tremolo	*	*tremolo	*
!	!	!	!	!LO:MO:mod=!LO&colon;DY&colon;ed=brack	!	!	!	!	!	!	!	!	!	!	!	!	!	!	!	!	!	!	!	!	!LO:MO:mod=!LO&colon;DY&colon;ed=brack	!	!
!	!	!	!	!null	!	!	!	!	!	!	!	!	!	!	!	!	!	!	!	!	!	!	!	!	!null	!	!
!	!	!	!	!LO:MO:null:mod=f	!	!	!	!	!	!	!	!	!	!	!	!	!	!	!	!	!	!	!	!	!LO:MO:null:mod=f	!	!
8.D\L	.	f	8F/L	.	8.r	.	1ryy	16F\LL	tol-	.	.	.	.	.	.	.	.	.	.	8r	.	8r	.	8dd\L	.	8ff\L	f
.	.	.	.	.	.	.	.	16E\JJ	.	.	.	.	.	.	.	.	.	.	.	.	.	.	.	.	.	.	.
.	.	.	32D/LL	.	.	.	.	8D\	-lis	.	.	.	.	.	.	.	.	.	.	8d/L	.	8dd\L	.	8dd\	.	8ff\	.
.	.	.	32A/	.	.	.	.	.	.	.	.	.	.	.	.	.	.	.	.	.	.	.	.	.	.	.	.
!	!	!	!	!	!LO:SIC:s=(32dLLL	!	!	!	!	!	!	!	!	!	!	!	!	!	!	!	!	!	!	!	!	!	!
(32D\LL	.	.	32D/	.	32d/LLL	f	.	.	.	.	.	.	.	.	.	.	.	.	.	.	.	.	.	.	.	.	.
!	!	!	!	!	!LO:SIC:s=32eJJJ)	!	!	!	!	!	!	!	!	!	!	!	!	!	!	!	!	!	!	!	!	!	!
32E\JJJ)	.	.	32A/JJJ	.	32e/JJJ	.	.	.	.	.	.	.	.	.	.	.	.	.	.	.	.	.	.	.	.	.	.
*	*	*	*rep	*	*	*	*	*	*	*	*	*	*	*	*	*	*	*	*	*	*	*	*	*	*	*	*
!LO:LB;g=original	!	!	!	!	!	!	!	!	!	!	!	!	!	!	!	!	!	!	!	!	!	!	!	!	!	!	!
16F\LL	.	.	32D/LLL	.	16f/LL	.	.	4r	.	.	.	.	.	.	.	.	.	.	.	8d/	.	8dd\	.	8dd\	.	8ff\	.
.	.	.	32A/	.	.	.	.	.	.	.	.	.	.	.	.	.	.	.	.	.	.	.	.	.	.	.	.
(32F\L	.	.	32D/	.	(32f/L	.	.	.	.	.	.	.	.	.	.	.	.	.	.	.	.	.	.	.	.	.	.
32E\JJJ)	.	.	32A/JJJ	.	32e/JJJ)	.	.	.	.	.	.	.	.	.	.	.	.	.	.	.	.	.	.	.	.	.	.
*	*	*	*Xrep	*	*	*	*	*	*	*	*	*	*	*	*	*	*	*	*	*	*	*	*	*	*	*	*
*	*	*	*rep	*	*	*	*	*	*	*	*	*	*	*	*	*	*	*	*	*	*	*	*	*	*	*	*
!	!	!	!	!	!	!	!	!	!	!	!	!	!	!	!	!	!	!	!	!	!	!	!	!	!	!LO:SIC:s=8ff	!
16D\LL	.	.	32D/LLL	.	16d/LL	.	.	.	.	.	.	.	.	.	.	.	.	.	.	8d/	.	8dd\	.	8dd\	.	8ff\J	.
.	.	.	32A/	.	.	.	.	.	.	.	.	.	.	.	.	.	.	.	.	.	.	.	.	.	.	.	.
!	!	!	!	!	!LO:SIC:s=(32dL	!	!	!	!	!	!	!	!	!	!	!	!	!	!	!	!	!	!	!	!	!	!
(32D\L	.	.	32D/	.	32d/L	.	.	.	.	.	.	.	.	.	.	.	.	.	.	.	.	.	.	.	.	.	.
!	!	!	!	!	!LO:SIC:s=32c#JJJ)	!	!	!	!	!	!	!	!	!	!	!	!	!	!	!	!	!	!	!	!	!	!
32C#X\JJJ)	.	.	32A/JJJ	.	32c#X/JJJ	.	.	.	.	.	.	.	.	.	.	.	.	.	.	.	.	.	.	.	.	.	.
!	!	!	!	!	!	!	!	!	!	!	!	!	!	!	!	!	!	!	!	!	!	!	!	!	!	!LO:MO:mod=*null:null	!
*	*	*	*Xrep	*	*	*	*	*	*	*	*	*	*	*	*	*	*	*	*	*	*	*	*	*	*	*Xtremolo	*
!	!	!	!	!	!	!	!	!	!	!	!	!	!	!	!	!	!	!	!	!	!	!	!	!	!	!LO:SIC:s=8ff	!
8D\	.	.	8D/	.	16d/LL	.	.	8r	.	.	.	.	.	.	.	.	.	.	.	8d/J	.	8dd\J	.	8dd\	.	8ff\L	.
.	.	.	.	.	16A/JJ	.	.	.	.	.	.	.	.	.	.	.	.	.	.	.	.	.	.	.	.	.	.
8r	.	.	8r	.	8r	.	.	8A\	pec-	.	.	.	.	.	.	.	.	.	.	8r	.	8r	.	8dd\J	.	8ff\J	.
!	!	!	!	!	!	!	!	!	!	!	!	!	!	!	!	!	!	!	!	!	!	!	!	!	!	!LO:MO:mod=*Xtremolo	!
*	*	*	*	*	*	*	*	*	*	*	*	*	*	*	*	*	*	*	*	*	*	*	*	*Xtremolo	*	*null	*
4r	.	.	4r	.	4r	.	.	8F\	-ca-	.	.	.	.	.	.	.	.	.	.	4r	.	4r	.	4r	.	4r	.
.	.	.	.	.	.	.	.	8D\	-ta	.	.	.	.	.	.	.	.	.	.	.	.	.	.	.	.	.	.
=5	=5	=5	=5	=5	=5	=5	=5	=5	=5	=5	=5	=5	=5	=5	=5	=5	=5	=5	=5	=5	=5	=5	=5	=5	=5	=5	=5
!	!	!	!	!	!	!	!	!LO:TX:t=P:problem=mixed beam	!	!	!	!	!	!	!	!	!	!	!	!	!	!	!	!	!	!	!
8.r	.	.	8r	.	8.r	.	1ryy	8C#X/L	mun-	.	0r	.	.	0r	.	.	0r	.	.	1r	.	1r	.	8r	.	8r	.
!	!	!	!	!	!	!	!	!	!	!	!	!	!	!	!	!	!	!	!	!	!	!	!	!	!	!	!LO:MO:mod=.
.	.	.	32C#X/LLL	.	.	.	.	8B-\J	-di	.	.	.	.	.	.	.	.	.	.	.	.	.	.	8ee\	.	4bb-\	f
.	.	.	32G/	.	.	.	.	.	.	.	.	.	.	.	.	.	.	.	.	.	.	.	.	.	.	.	.
!	!	!	!	!	!LO:SIC:s=(32b-LLL	!	!	!	!	!	!	!	!	!	!	!	!	!	!	!	!	!	!	!	!	!	!
(32B-\LLL	.	.	32C#/	.	32b-/LLL	.	.	.	.	.	.	.	.	.	.	.	.	.	.	.	.	.	.	.	.	.	.
!	!	!	!	!	!LO:SIC:s=32aJJJ)	!	!	!	!	!	!	!	!	!	!	!	!	!	!	!	!	!	!	!	!	!	!
32A\JJJ)	.	.	32G/JJJ	.	32a/JJJ	.	.	.	.	.	.	.	.	.	.	.	.	.	.	.	.	.	.	.	.	.	.
*	*	*	*rep	*	*	*	*	*	*	*	*	*	*	*	*	*	*	*	*	*	*	*	*	*	*	*	*
16G\LL	.	.	32C#/LLL	.	16g/LL	.	.	4r	.	.	.	.	.	.	.	.	.	.	.	.	.	.	.	4ee\	.	.	.
.	.	.	32G/	.	.	.	.	.	.	.	.	.	.	.	.	.	.	.	.	.	.	.	.	.	.	.	.
(32G\L	.	.	32C#/	.	(32g/L	.	.	.	.	.	.	.	.	.	.	.	.	.	.	.	.	.	.	.	.	.	.
32F\JJJ)	.	.	32G/JJJ	.	32f/JJJ)	.	.	.	.	.	.	.	.	.	.	.	.	.	.	.	.	.	.	.	.	.	.
*	*	*	*Xrep	*	*	*	*	*	*	*	*	*	*	*	*	*	*	*	*	*	*	*	*	*	*	*	*
*	*	*	*rep	*	*	*	*	*	*	*	*	*	*	*	*	*	*	*	*	*	*	*	*	*	*	*	*
16E\LL	.	.	32C#/LLL	.	16e/LL	.	.	.	.	.	.	.	.	.	.	.	.	.	.	.	.	.	.	.	.	8bb-\	.
.	.	.	32G/	.	.	.	.	.	.	.	.	.	.	.	.	.	.	.	.	.	.	.	.	.	.	.	.
(32E\L	.	.	32C#/	.	(32e/L	.	.	.	.	.	.	.	.	.	.	.	.	.	.	.	.	.	.	.	.	.	.
32D\JJJ)	.	.	32G/JJJ	.	32d/JJJ)	.	.	.	.	.	.	.	.	.	.	.	.	.	.	.	.	.	.	.	.	.	.
*	*	*	*Xrep	*	*	*	*	*	*	*	*	*	*	*	*	*	*	*	*	*	*	*	*	*	*	*	*
!	!	!	!LO:LB:g=original	!	!LO:LB:g=original	!	!	!	!	!	!	!	!	!	!	!	!	!	!	!	!	!	!	!	!	!	!
8C#X/	.	.	8G/ 8C#/	.	16c#X/LL	.	.	8r	.	.	.	.	.	.	.	.	.	.	.	.	.	.	.	4ee\	.	4bb-\	.
.	.	.	.	.	16c#/JJ 16A/	.	.	.	.	.	.	.	.	.	.	.	.	.	.	.	.	.	.	.	.	.	.
*	*	*	*	*	*	*	*	*	*ij	*	*	*	*	*	*	*	*	*	*	*	*	*	*	*	*	*	*
8r	.	.	8r	.	8r	.	.	8B-\	pec-	.	.	.	.	.	.	.	.	.	.	.	.	.	.	.	.	.	.
!	!	!	!	!	!	!	!	!LO:SIC:s=8A	!	!	!	!	!	!	!	!	!	!	!	!	!	!	!	!	!	!	!
!	!	!	!	!	!	!	!	!LO:TX:t=P:problem=mixed beam	!	!	!	!	!	!	!	!	!	!	!	!	!	!	!	!	!	!	!
4r	.	.	4r	.	4r	.	.	8A\L	-ca-	.	.	.	.	.	.	.	.	.	.	.	.	.	.	4r	.	4r	.
!	!	!	!	!	!	!	!	!LO:SIC:s=8C#	!	!	!	!	!	!	!	!	!	!	!	!	!	!	!	!	!	!	!
.	.	.	.	.	.	.	.	8C#X/J	-ta	.	.	.	.	.	.	.	.	.	.	.	.	.	.	.	.	.	.
=6	=6	=6	=6	=6	=6	=6	=6	=6	=6	=6	=6	=6	=6	=6	=6	=6	=6	=6	=6	=6	=6	=6	=6	=6	=6	=6	=6
*	*	*	*	*	*tremolo	*	*	*	*	*	*	*	*	*	*	*	*	*	*	*	*	*	*	*	*	*	*
!	!	!	!	!	!	!	!	!	!	!	!	!	!	!	!	!	!	!	!	!	!	!	!LO:DY:mod= :t=f.	!LO:TX:t=P:problem=diminuendolike accent	!	!LO:TX:t=P:problem=diminuendolike accent	!
8D\	.	.	8A/ 8D/	.	8f/L 8d/	.	1ryy	8D\	mun-	.	.	.	.	.	.	.	.	.	.	4d/	.	4dd\	f	4.d^/	.	4.dd^\	.
4F\	.	.	4A/ 4D/	.	8f/ 8d/	.	.	8D\	-di	.	.	.	.	.	.	.	.	.	.	.	.	.	.	.	.	.	.
!	!	!	!	!	!	!	!	!LO:LB:g=original	!	!	!	!	!	!	!	!	!	!	!	!	!	!	!	!	!	!	!
*	*	*	*	*	*	*	*	*	*Xij	*	*	*	*	*	*	*	*	*	*	*	*	*	*	*	*	*	*
.	.	.	.	.	8f/ 8d/	.	.	4r	.	.	.	.	.	.	.	.	.	.	.	4r	.	4r	.	.	.	.	.
8E\	.	.	4A/ 4D/	.	8f/J 8d/	.	.	.	.	.	.	.	.	.	.	.	.	.	.	.	.	.	.	8e/	.	8ee\	.
!	!	!	!	!	!	!	!	!	!	!	!	!	!	!	!	!	!	!	!	!	!	!	!	!LO:TX:t=P:problem=diminuendolike accent	!	!LO:TX:t=P:problem=diminuendolike accent	!
!	!	!	!	!	!	!	!	!	!	!	!	!	!	!	!	!	!	!	!	!	!	!	!	!LO:LB:g=original	!	!	!
8D\	.	.	.	.	8f/L 8d/	.	.	2r	.	.	.	.	.	.	.	.	.	.	.	4d/	.	4dd\	.	4.f^/	.	4.ff^\	.
4A\	.	.	4A/ 4D/	.	8f/ 8d/	.	.	.	.	.	.	.	.	.	.	.	.	.	.	.	.	.	.	.	.	.	.
.	.	.	.	.	8f/ 8d/	.	.	.	.	.	.	.	.	.	.	.	.	.	.	4r	.	4r	.	.	.	.	.
8D\	.	.	8A/ 8D/	.	8f/J 8d/	.	.	.	.	.	.	.	.	.	.	.	.	.	.	.	.	.	.	8d/	.	8dd\	.
!	!	!	!	!	!	!	!	!	!	!	!	!	!	!	!	!	!	!	!	!	!	!LO:LB:g=original	!	!	!	!LO:LB:g=original	!
=7	=7	=7	=7	=7	=7	=7	=7	=7	=7	=7	=7	=7	=7	=7	=7	=7	=7	=7	=7	=7	=7	=7	=7	=7	=7	=7	=7
*	*	*	*tremolo	*	*	*	*	*	*	*	*	*	*	*	*	*	*	*	*	*	*	*	*	*	*	*	*
!	!	!	!	!	!	!LO:MO:mod=.	!	!	!	!	!	!	!	!	!	!	!	!	!	!	!	!	!	!	!LO:MO:mod=.	!	!LO:DY:mod= :t=f.
8C#X\L	.	.	16A/LL 16C#X/	.	16b-/LL 16g/	f	1ryy	1r	.	.	1r	.	.	1r	.	.	1r	.	.	1r	.	1r	.	8a\L	f	8ee\L	f
.	.	.	16A/ 16C#/	.	16b-/ 16g/	.	.	.	.	.	.	.	.	.	.	.	.	.	.	.	.	.	.	.	.	.	.
8.B-\J	.	.	16A/ 16C#/	.	16b-/ 16g/	.	.	.	.	.	.	.	.	.	.	.	.	.	.	.	.	.	.	8ee\	.	8gg\	.
.	.	.	16A/ 16C#/	.	16b-/ 16g/	.	.	.	.	.	.	.	.	.	.	.	.	.	.	.	.	.	.	.	.	.	.
.	.	.	16A/ 16C#/	.	16b-/ 16g/	.	.	.	.	.	.	.	.	.	.	.	.	.	.	.	.	.	.	8ee\	.	8gg\	.
16A\LL	.	.	16A/ 16C#/	.	16b-/ 16g/	.	.	.	.	.	.	.	.	.	.	.	.	.	.	.	.	.	.	.	.	.	.
16G\	.	.	16A/ 16C#/	.	16b-/ 16g/	.	.	.	.	.	.	.	.	.	.	.	.	.	.	.	.	.	.	8ee\J	.	8gg\J	.
16F\JJ	.	.	16A/ 16C#/	.	16b-/JJ 16g/	.	.	.	.	.	.	.	.	.	.	.	.	.	.	.	.	.	.	.	.	.	.
*	*	*	*	*	*	*	*	*	*	*	*	*	*	*	*	*	*	*	*	*	*	*	*	*tremolo	*	*tremolo	*
16G\LL	.	.	16A/ 16C#/	.	16b-/LL 16g/	.	.	.	.	.	.	.	.	.	.	.	.	.	.	.	.	.	.	8ee\L	.	8gg\L	.
16F\	.	.	16A/ 16C#/	.	16b-/ 16g/	.	.	.	.	.	.	.	.	.	.	.	.	.	.	.	.	.	.	.	.	.	.
16E\	.	.	16A/ 16C#/	.	16b-/ 16g/	.	.	.	.	.	.	.	.	.	.	.	.	.	.	.	.	.	.	8ee\	.	8gg\	.
16D\JJ	.	.	16A/ 16C#/	.	16b-/ 16g/	.	.	.	.	.	.	.	.	.	.	.	.	.	.	.	.	.	.	.	.	.	.
(16C#/LL	.	.	16A/ 16C#/	.	16b-/ 16g/	.	.	.	.	.	.	.	.	.	.	.	.	.	.	.	.	.	.	8ee\	.	8gg\	.
16AA/	.	.	16A/ 16C#/	.	16b-/ 16g/	.	.	.	.	.	.	.	.	.	.	.	.	.	.	.	.	.	.	.	.	.	.
!LO:SIC:v:s=16BB	!	!	!	!	!	!	!	!	!	!	!	!	!	!	!	!	!	!	!	!	!	!	!	!	!	!	!
16BB-/	.	.	16A/ 16C#/	.	16b-/ 16g/	.	.	.	.	.	.	.	.	.	.	.	.	.	.	.	.	.	.	8ee\J	.	8gg\J	.
16C#/JJ)	.	.	16A/JJ 16C#/	.	16b-/JJ 16g/	.	.	.	.	.	.	.	.	.	.	.	.	.	.	.	.	.	.	.	.	.	.
*	*	*	*	*	*Xtremolo	*	*	*	*	*	*	*	*	*	*	*	*	*	*	*	*	*	*	*Xtremolo	*	*Xtremolo	*
=8	=8	=8	=8	=8	=8	=8	=8	=8	=8	=8	=8	=8	=8	=8	=8	=8	=8	=8	=8	=8	=8	=8	=8	=8	=8	=8	=8
!	!	!LO:MO:mod=!LO&colon;DY&colon;ed=brack	!	!LO:MO:mod=!LO&colon;DY&colon;ed=brack	!	!	!	!	!	!LO:MO:mod=!LO&colon;DY&colon;ed=brack	!	!	!LO:MO:mod=!LO&colon;DY&colon;ed=brack	!	!	!	!	!	!	!	!	!	!	!	!	!	!
!	!	!null	!	!null	!	!	!	!	!	!null	!	!	!null	!	!	!	!	!	!	!	!	!	!	!	!	!	!
!	!	!LO:MO:null:mod=p	!	!LO:MO:null:mod=p	!	!	!	!	!LO:MO:mod=A-	!LO:MO:null:mod=p	!	!	!LO:MO:null:mod=p	!	!	!	!	!	!LO:DY:t=p.:mod=%s	!	!LO:DY:mod= :t=f.	!	!LO:DY:mod= :t=f.	!	!	!	!
4D\	.d	.	8D/L	.	8a/L 8d/	p	1ryy	4.D\	a-	.	4.d\	A-	.	4.f\	A-	p	4.a\	A-	p	4d/	f	4dd\	f	4dd\	.	4ff\	.
.	.	.	8D/	.	8A/	.	.	.	.	.	.	.	.	.	.	.	.	.	.	.	.	.	.	.	.	.	.
4r	.	.	8D/	.	8A/	.	.	.	.	.	.	.	.	.	.	.	.	.	.	4r	.	4r	.	4r	.	4r	.
.	.	.	8D/	.	8A/J	.	.	8D\	-gnus	.	8d\	-gnus	.	8f\	-gnus	.	8a\	-gnus	.	.	.	.	.	.	.	.	.
*	*	*	*	*	*tremolo	*	*	*	*	*	*	*	*	*	*	*	*	*	*	*	*	*	*	*	*	*	*
!	!	!	!	!	!	!	!	!	!	!	!	!	!	!	!	!	!	!	!	!	!LO:DY:t=p.:mod=%s	!	!LO:DY:t=p.:mod=%s	!	!	!	!
4d\	.	.	8D/	.	8A/L	.	.	4D\	De-	.	(8d\L	De-	.	4f\	De-	.	4a\	De-	.	4d/	p	4dd\	p	2r	.	8r	.
!	!	!	!	!	!	!	!	!	!	!	!	!	!	!	!	!	!	!	!	!	!	!	!	!	!	!	!LO:DY:t=p.:mod=%s
.	.	.	8D/	.	8A/	.	.	.	.	.	8A\J)	.	.	.	.	.	.	.	.	.	.	.	.	.	.	8a/L	p
4r	.	.	8D/	.	8A/	.	.	8D\	-i	.	8d\	-i	.	8f\	-i	.	8a\	-i	.	4r	.	4r	.	.	.	8dd/	.
.	.	.	8D/J	.	8A/J	.	.	8D\	qui	.	8f\	qui	.	8f\	qui	.	8a\	qui	.	.	.	.	.	.	.	8ff/J	.
*	*	*	*Xtremolo	*	*Xtremolo	*	*	*	*	*	*	*	*	*	*	*	*	*	*	*	*	*	*	*	*	*	*
!LO:LB:g=original	!	!	!	!	!	!	!	!	!	!	!	!	!	!	!	!	!	!	!	!	!	!	!	!	!	!	!
=9	=9	=9	=9	=9	=9	=9	=9	=9	=9	=9	=9	=9	=9	=9	=9	=9	=9	=9	=9	=9	=9	=9	=9	=9	=9	=9	=9
*	*	*	*	*	*	*	*	*2\right	*	*	*2\right	*	*	*2\right	*	*	*2\right	*	*	*	*	*2\right	*	*	*	*	*
!	!	!	!	!	!	!	!	!	!	!	!	!	!	!	!	!	!	!	!	!	!	!	!	!LO:SIC:s=2dd^	!	!LO:SIC:s=(2aa^	!
!	!	!	!LO:SIC:s=(2A^	!	!LO:TX:t=P:problem=diminuendolike accent	!	!	!	!	!	!	!	!	!	!	!LO:MO:mod=.	!LO:SIC:s=2dd	!	!	!LO:TX:t=P:problem=diminuendolike accent	!	!LO:TX:t=P:problem=diminuendolike accent	!	!LO:TX:t=P:problem=diminuendolike accent	!LO:MO:null:mod=p	!LO:TX:t=P:problem=diminuendolike accent	!
4D\	.	.	2A/	.	(2f^/	.	1ryy	2D\	tol-	.	2a\	tol-	.	2f\	tol-	>	(2dd\	tol-	.	2d^/	.	2dd^\	.	[2dd^\	.	(2aa\	.
4r	.	.	.	.	.	.	.	.	.	.	.	.	.	.	.	.	.	.	.	.	.	.	.	.	.	.	.
!	!	!	!LO:SIC:s=4d)	!	!LO:N:vis=4	!	!	!	!	!	!	!	!	!	!	!LO:MO:mod=.	!LO:SIC:s=4a	!	!	!	!	!	!	!LO:SIC:s=4dd	!	!	!
4d\	.	.	4d\	.	8d/)	.	.	4d\	-lis	.	4f\	-lis	.	4d\	-lis	]	4a\)	-lis	.	4d/	.	4dd\	.	4dd\]	.	4ff\)	.
.	.	.	.	.	8r	.	.	.	.	.	.	.	.	.	.	.	.	.	.	.	.	.	.	.	.	.	.
4r	.	.	4r	.	4r	.	.	4r	.	.	4r	.	.	4r	.	.	4r	.	.	4r	.	4r	.	4r	.	4r	.
=10	=10	=10	=10	=10	=10	=10	=10	=10	=10	=10	=10	=10	=10	=10	=10	=10	=10	=10	=10	=10	=10	=10	=10	=10	=10	=10	=10
!	!	!	!	!	!LO:TX:t=P:problem=diminuendolike accent	!	!	!	!	!	!	!	!	!	!	!LO:MO:mod=.	!	!	!LO:MO:mod=.	!	!	!	!	!	!LO:DY:mod= :t=po	!	!LO:DY:mod= :t=po.
4G\	.	.	4b-\	.	(2G^/	.	1ryy	4G\	pec-	.	4e\	pec-	.	4B-/	pec-	>	4d/	pec-	>	1r	.	1r	.	4dd\	p	4ee\	p
!	!	!	!	!	!	!	!	!	!	!	!	!	!	!LO:SIC:s=8.B-	!	!	!	!	!	!	!	!	!	!	!	!	!
4r	.	.	8.b-\L	.	.	.	.	8.G\	-ca-	.	8.e\	-ca-	.	8.B-/L	-ca-	.	8.d/	-ca-	.	.	.	.	.	8.dd\L	.	8.ee\L	.
!	!	!	!	!	!	!	!	!	!	!	!	!	!	!LO:SIC:s=16B-	!	!	!	!	!LO:MO:mod=.	!	!	!	!	!	!	!	!
.	.	.	16b-\Jk	.	.	.	.	16G\	-ta	.	16e\	-ta	.	16B-/Jk	-ta	.	16d/	-ta	]	.	.	.	.	16dd\Jk	.	16ee\Jk	.
!	!	!	!	!	!LO:N:vis=4	!	!	!	!	!	!	!	!	!	!	!LO:MO:mod=.	!	!	!	!	!	!	!	!	!	!	!
4G\	.	.	4b-\	.	8G/)	.	.	4G\	mun-	.	4e\	mun-	.	4B-/	mun-	]	4d/	mun-	.	.	.	.	.	4dd\	.	4ee\	.
.	.	.	.	.	8r	.	.	.	.	.	.	.	.	.	.	.	.	.	.	.	.	.	.	.	.	.	.
4r	.	.	4b-\	.	4r	.	.	4G\	-di	.	4e\	-di	.	4B-/	-di	.	4d/	-di	.	.	.	.	.	4dd\	.	4ee\	.
=11	=11	=11	=11	=11	=11	=11	=11	=11	=11	=11	=11	=11	=11	=11	=11	=11	=11	=11	=11	=11	=11	=11	=11	=11	=11	=11	=11
*	*	*	*2\right	*	*	*	*	*	*	*	*	*	*	*	*	*	*	*	*	*2\right	*	*	*	*	*	*	*
!	!	!	!	!	!	!	!	!	!	!	!	!	!	!	!	!	!	!	!	!	!	!	!	!	!LO:MO:mod=!LO&colon;DY&colon;ed=brack	!	!LO:MO:mod=!LO&colon;DY&colon;ed=brack
!	!	!	!	!	!	!	!	!	!	!	!	!	!	!	!	!	!	!	!	!	!	!	!	!	!null	!	!null
!	!	!	!	!	!	!	!	!	!LO:MO:mod=A-	!	!	!LO:MO:mod=A-	!	!	!LO:MO:mod=A-	!LO:MO:mod=.	!	!LO:MO:mod=A-	!LO:MO:mod=.	!	!LO:DY:t=for:mod=%s	!	!LO:DY:t=f.:mod=%s	!LO:TX:t=P:problem=diminuendolike accent	!LO:MO:null:mod=f	!LO:TX:t=P:problem=diminuendolike accent	!LO:MO:null:mod=f
4r	.	.	2cc#X\	.	4r	.	1ryy	2G\	a-	.	2c#X\	a-	.	2e\	a-	>	2b-\	a-	>	2gg\	f	2gg\	f	2ee^\	.	2bb-^\	.
!	!	!	!	!	!LO:TX:t=P:problem=diminuendolike accent	!	!	!	!	!	!	!	!	!	!	!	!	!	!	!	!	!	!	!	!	!	!
(4C#X^/	.	.	.	.	(4e^/	.	.	.	.	.	.	.	.	.	.	.	.	.	.	.	.	.	.	.	.	.	.
!	!	!	!	!	!	!	!	!LO:SIC:s=(4F	!	!	!LO:SIC:s=(4d	!	!	!LO:SIC:s=(4f	!	!LO:MO:mod=.	!LO:SIC:s=(4a	!	!LO:MO:mod=.	!	!	!	!	!	!	!	!
8D/)	.	.	4dd\	.	8f/)	.	.	4F\	-gnus	.	4d\	-gnus	.	4f\	-gnus	]	4a\	-gnus	]	2r	.	2r	.	4ff\	.	4aa\	.
8r	.	.	.	.	8r	.	.	.	.	.	.	.	.	.	.	.	.	.	.	.	.	.	.	.	.	.	.
!	!	!	!	!	!	!	!	!LO:SIC:s=4c#)	!LO:MO:mod=.	!	!LO:SIC:s=4e)	!LO:MO:mod=.	!	!LO:SIC:s=4b-)	!	!	!LO:SIC:s=4g)	!LO:MO:mod=.	!LO:MO:mod=.	!	!	!	!	!	!	!	!
8r	.	.	4b-X\	.	8r	.	.	4c#X\	De-	.	4e\	De-	.	4b-\	.	.	4g\	De-	>]	.	.	.	.	4ee\	.	4gg\	.
!	!	!	!	!	!LO:TX:t=P:problem=diminuendolike accent	!LO:HP:a	!	!	!	!	!	!	!	!	!	!	!	!	!	!	!	!	!	!	!	!	!
(8E^\	.	.	.	.	(8b-^\	.	.	.	.	.	.	.	.	.	.	.	.	.	.	.	.	.	.	.	.	.	.
=12	=12	=12	=12	=12	=12	=12	=12	=12	=12	=12	=12	=12	=12	=12	=12	=12	=12	=12	=12	=12	=12	=12	=12	=12	=12	=12	=12
!	!	!	!	!	!	!	!	!	!LO:MO:mod=De-	!	!	!LO:MO:mod=De-	!	!	!	!	!	!LO:MO:mod=De-	!	!	!	!	!	!	!	!	!
8D\)	.	.	4a\	.	8a\)	.	1ryy	4d\	-i	.	4d\	-i	.	4a\	De-	.	4f/	-i	.	4d/	.	4dd\	.	4dd\	.	4ff\	.
8r	.	.	.	.	8r	.	.	.	.	.	.	.	.	.	.	.	.	.	.	.	.	.	.	.	.	.	.
!	!	!	!	!	!	!	!	!	!LO:MO:mod=-i	!	!LO:SIC:s=8.A	!LO:MO:mod=-i	!	!	!	!	!LO:SIC:s=8.ff	!LO:MO:mod=-i	!LO:DY:mod= :t=po	!	!	!	!	!	!	!	!
4D\	.	.	4r	.	4d/ 4A/	.	.	8.D\	qui	.	8.A\L	qui	.	8.dd\	-i	.	8.ff\L	qui	p	4r	.	4r	.	4r	.	4r	.
!	!	!	!	!	!	!	!	!	!	!LO:MO:mod=!LO&colon;DY&colon;ed=brack	!	!	!LO:MO:mod=!LO&colon;DY&colon;ed=brack	!	!	!	!	!	!	!	!	!	!	!	!	!	!
!	!	!	!	!	!	!	!	!	!	!null	!	!	!null	!	!	!	!	!	!	!	!	!	!	!	!	!	!
!	!	!	!	!	!	!	!	!	!LO:MO:mod=qui	!LO:MO:null:mod=p	!LO:SIC:s=16A	!LO:MO:null:mod=qui	!LO:MO:null:mod=p	!	!	!	!LO:SIC:s=16ff	!LO:MO:null:mod=qui	!LO:MO:null:mod=p	!	!	!	!	!	!	!	!
.	.	.	.	.	.	.	.	16D\	tol-	.	16A\Jk	.	.	16dd\	qui	p	16ff\Jk	.	.	.	.	.	.	.	.	.	.
!	!	!	!	!	!	!	!	!	!LO:MO:mod=tol-	!	!	!	!	!	!	!	!LO:LB:g=original	!	!	!	!	!	!	!	!	!	!
4Cn/	.	.	2A/	.	4e-X/ 4c/	.	.	4A\	-lis	.	4cn\	tol-	.	4dd#X\	tol-	.	4ff\	tol-	.	2r	.	2r	.	4dd#X\	.	4ff\	.
!	!	!	!	!	!	!	!	!	!	!	!	!	!	!LO:SIC:s=8.dd#	!	!	!	!	!	!	!	!	!	!	!	!	!
!	!	!	!	!	!	!	!	!	!LO:MO:mod=-lis	!	!	!	!	!LO:LB:g=original	!	!	!LO:SIC:s=8.ff	!	!	!	!	!	!	!	!	!	!
4C/	.	.	.	.	4e-/ 4c/	.	.	8.A\	pec-	.	8.c\	-lis	.	8.dd#X\L	-lis	.	8.ff\L	-lis	.	.	.	.	.	4r	.	4r	.
!	!	!	!	!	!	!	!	!	!LO:MO:mod=pec-	!	!	!	!	!LO:SIC:s=16dd#	!	!	!LO:SIC:s=16ff	!	!	!	!	!	!	!	!	!	!
.	.	.	.	.	.	.	.	16A\	-ca-	.	16c\	pec-	.	16dd#\Jk	pec-	.	16ff\Jk	pec-	.	.	.	.	.	.	.	.	.
!	!	!	!	!	!LO:LB:g=original	!	!	!LO:LB:g=original	!	!	!LO:LB:g=original	!	!	!	!	!	!	!	!	!	!	!	!	!	!	!	!
=13	=13	=13	=13	=13	=13	=13	=13	=13	=13	=13	=13	=13	=13	=13	=13	=13	=13	=13	=13	=13	=13	=13	=13	=13	=13	=13	=13
!	!	!	!	!	!	!	!	!LO:SIC:s=2B-	!LO:MO:mod=-ca-	!	!LO:SIC:s=2B-	!	!	!	!	!	!	!	!	!	!	!	!	!	!	!	!
4r	.	.	4B-/	.	4r	.	1ryy	2B-X\	-ta	.	2B-X\	-ca-	.	2ddn\	-ca-	.	2ff\	-ca-	.	2r	.	2r	.	4ddn\	.	4ff\	.
4BB-/	.	.	4r	.	4d/	.	.	.	.	.	.	.	.	.	.	.	.	.	.	.	.	.	.	4r	.	4r	.
!	!	!	!	!	!	!	!	!	!LO:MO:null:mod=-ta	!	!	!	!	!	!	!LO:MO:mod=.	!	!	!LO:MO:mod=.	!	!	!	!	!LO:TX:t=P:problem=diminuendolike accent	!	!LO:SIC:s=2ff^	!
4r	.	.	2bn\	.	4r	.	.	2Bn\	.	.	2a-X\	-ta	.	2dd\	-ta	>]	2ff\	-ta	>]	2d/	.	2dd\	.	2g#X^/	.	2ff\	.
(4BBn/	.	.	.	.	(4d/	.	.	.	.	.	.	.	.	.	.	.	.	.	.	.	.	.	.	.	.	.	.
=14	=14	=14	=14	=14	=14	=14	=14	=14	=14	=14	=14	=14	=14	=14	=14	=14	=14	=14	=14	=14	=14	=14	=14	=14	=14	=14	=14
*	*	*	*	*	*	*	*	*	*	*	*	*ij	*	*	*	*	*	*ij	*	*	*	*	*	*	*	*	*
!	!	!	!LO:SIC:s=4cc	!	!	!	!	!	!	!	!	!	!	!	!	!	!	!	!	!LO:TX:a:t=1:mod=	!	!LO:TX:a:t=1:mod=	!	!	!	!	!
2C/)	.	.	4ccn\	.	4f/)	.	1ryy	4cn\	pec-	.	4f\	pec-	.	4a\	pec-	.	4aa\	pec-	.	1r	.	1r	.	4f/	.	4aa\	.
!	!	!	!	!	!	!	!	!LO:SIC:s=8.c	!	!	!	!	!	!LO:SIC:s=8.a	!	!	!LO:SIC:s=8.gg	!	!	!	!	!	!	!	!	!	!
.	.	.	4r	.	4r	.	.	8.c\L	-ca-	.	8.f\	-ca-	.	8.a\L	-ca-	.	8.gg\L	-ca-	.	.	.	.	.	4r	.	8.gg\L	.
!	!	!	!	!	!	!	!	!LO:SIC:s=16c	!	!	!	!	!	!LO:SIC:s=16a	!	!	!LO:SIC:s=16ff	!	!	!	!	!	!	!	!	!	!
.	.	.	.	.	.	.	.	16c\Jk	-ta	.	16f\	-ta	.	16a\Jk	-ta	.	16ff\Jk	-ta	.	.	.	.	.	.	.	16ff\Jk	.
*	*	*	*tremolo	*	*tremolo	*	*	*	*	*	*	*Xij	*	*	*	*	*	*Xij	*	*	*	*	*	*	*	*	*
4r	.	.	8g\L	.	8e/L 8B-/	.	.	2C/	mun-	.	2g\	mun-	.	2b-X\	mun-	.	8ee\L	mun-	.	.	.	.	.	2b-X^\	.	8ee\L	.
.	.	.	8c\	.	8e/ 8B-/	.	.	.	.	.	.	.	.	.	.	.	8cc\	.	.	.	.	.	.	.	.	8cc\	.
4C/	.	.	8g\	.	8e/ 8B-/	.	.	.	.	.	.	.	.	.	.	.	8dd\	.	.	.	.	.	.	.	.	8dd\	.
.	.	.	8c\J	.	8e/J 8B-/	.	.	.	.	.	.	.	.	.	.	.	8ee\J	.	.	.	.	.	.	.	.	8ee\J	.
*	*	*	*Xtremolo	*	*Xtremolo	*	*	*	*	*	*	*	*	*	*	*	*	*	*	*	*	*	*	*	*	*	*
!	!	!	!LO:LB:g=original	!	!	!	!	!	!	!	!	!	!	!	!	!	!	!	!	!	!	!	!	!LO:LB:g=original	!	!LO:LB:g=original	!
=15	=15	=15	=15	=15	=15	=15	=15	=15	=15	=15	=15	=15	=15	=15	=15	=15	=15	=15	=15	=15	=15	=15	=15	=15	=15	=15	=15
!LO:SIC:s=2FF;	!	!	!	!	!LO:SIC:s=2f 2A;	!	!	!	!	!	!LO:MO:mod=2c;	!	!	!	!	!	!LO:MO:mod=2ff;	!	!	!	!	!	!	!LO:SIC:s=2a;	!	!LO:SIC:s=2ff;	!
2FF/	.	.	2F;/	.	2f/ 2A/	.	1ryy	2F;\	-di	.	1c\;	-di	.	2a;\	-di	.	1ff\;	-di	.	1r;	.	1r;	.	2a/	.	2ff\	.
!LO:SIC:s=2r	!	!	!	!	!LO:SIC:s=2r	!	!	!	!	!	!LO:MO:null:mod=2r	!	!	!	!	!	!LO:MO:null:mod=2r	!	!	!	!	!	!	!LO:SIC:s=2r	!	!LO:SIC:s=2r	!
2r;	.	.	2r	.	2r;	.	.	2r	.	.	.	.	.	2r	.	.	.	.	.	.	.	.	.	2r;	.	2r;	.
=16	=16	=16	=16	=16	=16	=16	=16	=16	=16	=16	=16	=16	=16	=16	=16	=16	=16	=16	=16	=16	=16	=16	=16	=16	=16	=16	=16
!	!	!	!	!LO:MO:mod=!LO&colon;DY&colon;ed=brack	!	!	!	!	!	!	!	!	!	!	!	!	!	!	!	!	!	!	!	!	!	!	!
!	!	!	!	!null	!	!	!	!	!	!	!	!	!	!	!	!	!	!	!	!	!	!	!	!	!	!	!
!	!	!	!	!LO:MO:null:mod=f	!	!	!	!	!	!	!	!	!	!	!	!	!	!	!	!	!LO:MO:mod=.	!	!	!	!	!	!
4AA/	.	f	4A/	.	4a/ 4A/	f	1ryy	0r	.	.	1r	.	.	1r	.	.	1r	.	.	4a/	f	4aa\	.	2r	.	2r	.
8.BB-/L	.	.	8.B-/L	.	8.b-/L	.	.	.	.	.	.	.	.	.	.	.	.	.	.	4r	.	4r	.	.	.	.	.
16BB-/Jk	.	.	16B-/Jk	.	16b-/Jk	.	.	.	.	.	.	.	.	.	.	.	.	.	.	.	.	.	.	.	.	.	.
!	!	!	!	!	!	!	!	!	!	!	!	!	!	!	!	!	!	!	!	!	!	!	!	!	!	!LO:SIC:s=(4bb-^	!
!	!	!	!	!	!	!	!	!	!	!	!	!	!	!	!	!	!	!	!	!LO:SIC:s=(4ee^	!LO:MO:mod=.	!LO:SIC:s=(4gg^	!	!LO:TX:t=P:problem=diminuendolike accent	!	!LO:TX:t=P:problem=diminuendolike accent	!
4CC#X/	.	.	4C#X/	.	4c#X^>/	.	.	.	.	.	.	.	.	.	.	.	.	.	.	(4ee\	f	(4gg\	.	(4gg^\	.	4bb-^\	.
!LO:SIC:s=(16DDLL	!	!	!LO:SIC:s=(16DLL	!	!LO:SIC:s=(16dLL	!	!	!	!	!	!	!	!	!	!	!	!	!	!	!	!	!	!	!	!	!LO:SIC:s=8aa)	!
16DD/LL	.	.	16D/LL	.	16d/LL	.	.	.	.	.	.	.	.	.	.	.	.	.	.	8dd\)	.	8aa\)	.	8ff\)	.	8aa\	.
!LO:SIC:s=32EEL	!	!	!LO:SIC:s=32EL	!	!	!	!	!	!	!	!	!	!	!	!	!	!	!	!	!	!	!	!	!	!	!	!
(32EE/L	.	.	(32E/L	.	32e/L	.	.	.	.	.	.	.	.	.	.	.	.	.	.	.	.	.	.	.	.	.	.
!	!	!	!	!	!LO:SIC:s=32fJJJ	!	!	!	!	!	!	!	!	!	!	!	!	!	!	!	!	!	!	!	!	!	!
32FF/JJJ	.	.	32F/JJJ	.	(32f/JJJ	.	.	.	.	.	.	.	.	.	.	.	.	.	.	.	.	.	.	.	.	.	.
!	!	!	!LO:SIC:s=32GLLL	!	!	!	!	!	!	!	!	!	!	!	!	!	!	!	!	!	!	!	!	!	!	!	!
32GG/LLL	.	.	32G/LLL)	.	32g/LLL	.	.	.	.	.	.	.	.	.	.	.	.	.	.	8r	.	8r	.	8r	.	8r	.
32AA/	.	.	32A/	.	32a/	.	.	.	.	.	.	.	.	.	.	.	.	.	.	.	.	.	.	.	.	.	.
32BB-/	.	.	32B-/	.	32b-/	.	.	.	.	.	.	.	.	.	.	.	.	.	.	.	.	.	.	.	.	.	.
!	!	!	!LO:SIC:s=32c#JJJ)	!	!	!	!	!	!	!	!	!	!	!	!	!	!	!	!	!	!	!	!	!	!	!	!
32C#X/JJJ)	.	.	32c#X/JJJ	.	32cc#/JJJ)	.	.	.	.	.	.	.	.	.	.	.	.	.	.	.	.	.	.	.	.	.	.
!LO:LB:g=original	!	!	!	!	!	!	!	!	!	!	!	!	!	!	!	!	!	!	!	!	!	!	!	!	!	!	!
=17	=17	=17	=17	=17	=17	=17	=17	=17	=17	=17	=17	=17	=17	=17	=17	=17	=17	=17	=17	=17	=17	=17	=17	=17	=17	=17	=17
!	!	!	!	!	!	!	!	!	!	!	!	!	!LO:MO:mod=!LO&colon;DY&colon;ed=brack	!	!	!	!	!	!	!	!	!	!	!	!	!	!
!	!	!	!	!	!	!	!	!	!	!	!	!	!null	!	!	!	!	!	!	!	!	!	!	!	!	!	!
!	!	!	!	!	!	!	!	!	!	!	!	!LO:MO:mod=mi-	!LO:MO:null:mod=f	!	!LO:MO:mod=mi-	!LO:DY:rj:t=for:mod=%s	!	!LO:MO:mod=mi-	!LO:DY:rj:t=for:mod=%s	!	!	!	!	!	!	!	!
8D\	.	.	8d\	.	8dd\	.	1ryy	.	.	.	4f\	Mi-	.	4a:\	Mi-	f	4dd\	Mi-	f	00r	.	00r	.	00r	.	00r	.
8r	.	.	8r	.	8r	.	.	.	.	.	.	.	.	.	.	.	.	.	.	.	.	.	.	.	.	.	.
!	!	!	!	!	!	!	!	!	!	!	!	!	!	!	!	!	!LO:SIC:s=8cc#L	!	!	!	!	!	!	!	!	!	!
4r	.	.	4r	.	4r	.	.	.	.	.	8e\L	-se-	.	8g\L	-se-	.	8cc#X\	-se-	.	.	.	.	.	.	.	.	.
!	!	!	!	!	!	!	!	!	!	!	!	!	!	!	!	!	!LO:SIC:s=8b-J	!	!	!	!	!	!	!	!	!	!
.	.	.	.	.	.	.	.	.	.	.	8d\J	.	.	8f\J	.	.	8b-\	.	.	.	.	.	.	.	.	.	.
!	!	!	!	!	!LO:SIC:s=(4f^	!	!	!	!	!	!	!	!	!	!	!	!	!	!	!	!	!	!	!	!	!	!
!	!	!	!LO:SIC:s=(4d^	!	!LO:TX:t=P:problem=diminuendolike accent	!	!	!	!	!	!LO:SIC:s=4d^	!	!	!LO:TX:t=P:problem=diminuendolike accent	!	!	!	!	!	!	!	!	!	!	!	!	!
2r	.	.	4d\	.	((4f^/	.	.	.	.	.	4d\	-re-	.	4f^\	-re-	.	4b-^\	-re-	.	.	.	.	.	.	.	.	.
!	!	!	!LO:SIC:s=8c#)	!	!LO:SIC:s=8e)	!	!	!	!	!	!	!	!	!	!	!	!	!	!	!	!	!	!	!	!	!	!
.	.	.	8c#X\	.	8e/))	.	.	.	.	.	4c#X\	-re	.	4e\	-re	.	4a\	-re	.	.	.	.	.	.	.	.	.
.	.	.	8r	.	8r	.	.	.	.	.	.	.	.	.	.	.	.	.	.	.	.	.	.	.	.	.	.
=18	=18	=18	=18	=18	=18	=18	=18	=18	=18	=18	=18	=18	=18	=18	=18	=18	=18	=18	=18	=18	=18	=18	=18	=18	=18	=18	=18
!	!	!	!	!	!	!	!	!	!	!	!LO:SIC:s=8B	!	!	!LO:SIC:s=8d	!	!	!LO:SIC:s=8g#	!	!	!	!	!	!	!	!	!	!
1r	.	.	8r	.	8r	.	1ryy	1r	.	.	8Bn\L	no-	.	8d\L	no-	.	8g#X/L	no-	.	.	.	.	.	.	.	.	.
!	!	!	!LO:SIC:s=(8b-^L	!	!LO:TX:t=P:problem=diminuendolike accent	!	!	!	!	!	!LO:SIC:s=8B-	!	!	!LO:SIC:s=8d	!	!	!LO:SIC:s=8g	!	!	!	!	!	!	!	!	!	!
.	.	.	8b-\L	.	(8dd^\L	.	.	.	.	.	8B-X\J	-bis	.	8d\J	-bis	.	8gn/J	-bis	.	.	.	.	.	.	.	.	.
!	!	!	!LO:SIC:s=8aJ)	!	!	!	!	!	!	!	!LO:SIC:s=8A	!	!	!LO:SIC:s=8cc#	!	!	!LO:SIC:s=8ff#	!	!	!	!	!	!	!	!	!	!
.	.	.	8a\J	.	8cc#X\J)	.	.	.	.	.	8A\L	mi-	.	8cc#X\	mi-	.	8ff#X\L	mi-	.	.	.	.	.	.	.	.	.
!	!	!	!	!	!	!	!	!	!	!	!LO:SIC:s=8g#	!	!	!LO:SIC:s=8cc	!	!	!LO:SIC:s=8ff	!LO:MO:null:mod=-se-	!	!	!	!	!	!	!	!	!
.	.	.	8r	.	8r	.	.	.	.	.	8g#X\J	se-	.	8ccn\	-se-	.	8ffn\J	.	.	.	.	.	.	.	.	.	.
!	!	!	!	!	!	!	!	!	!	!	!	!	!	!	!	!	!	!LO:MO:mod=-re-	!	!	!	!	!	!	!	!	!
.	.	.	8r	.	8r	.	.	.	.	.	4.gn\	-re-	.	4.b-\	-re-	.	4ff\	-se-	.	.	.	.	.	.	.	.	.
!	!	!	!LO:SIC:s=4g^	!	!	!	!	!	!	!	!	!	!	!	!	!	!	!	!	!	!	!	!	!	!	!	!
.	.	.	4g\	.	4b-^\	.	.	.	.	.	.	.	.	.	.	.	.	.	.	.	.	.	.	.	.	.	.
!	!	!	!	!	!	!	!	!	!	!	!	!	!	!	!	!	!LO:SIC:s=8eeL	!LO:MO:mod=-re	!	!	!	!	!	!	!	!	!
.	.	.	.	.	.	.	.	.	.	.	.	.	.	.	.	.	8ee\	-re-	.	.	.	.	.	.	.	.	.
!	!	!	!	!	!	!	!	!	!	!	!	!	!	!	!	!	!LO:SIC:s=8ddJ	!LO:MO:mod=.	!	!	!	!	!	!	!	!	!
.	.	.	8r	.	8r	.	.	.	.	.	8f\	-re	.	8a\	-re	.	8dd\	-re	.	.	.	.	.	.	.	.	.
!	!	!	!	!	!LO:LB:g=original	!	!	!	!	!	!	!	!	!	!	!	!LO:LB:g=original	!	!	!	!	!	!	!	!	!	!
=19	=19	=19	=19	=19	=19	=19	=19	=19	=19	=19	=19	=19	=19	=19	=19	=19	=19	=19	=19	=19	=19	=19	=19	=19	=19	=19	=19
!	!	!	!	!	!	!	!	!	!	!	!	!	!	!	!	!	!LO:SIC:s=8cc#L	!	!	!	!	!	!	!	!	!	!
2r	.	.	8r	.	8r	.	1ryy	2r	.	.	8e\L	no-	.	8g\L	no-	.	8cc#X\	no-	.	.	.	.	.	.	.	.	.
!	!	!	!	!	!	!	!	!	!	!	!	!	!	!	!	!	!LO:SIC:s=8b-	!	!	!	!	!	!	!	!	!	!
.	.	.	8d/L	.	8f/L	.	.	.	.	.	8d\	.	.	8f\	.	.	8b-\L	.	.	.	.	.	.	.	.	.	.
.	.	.	8c#X/	.	8e/	.	.	.	.	.	8c#X\	.	.	8e\	.	.	8a\	.	.	.	.	.	.	.	.	.	.
.	.	.	8Bn/J	.	8d/J	.	.	.	.	.	8Bn\J	.	.	8d\J	.	.	8g#X\J	.	.	.	.	.	.	.	.	.	.
!	!	!	!	!	!	!	!	!	!	!LO:MO:mod=!LO&colon;DY&colon;ed=brack	!	!	!	!	!	!	!	!	!	!	!	!	!	!	!	!	!
!	!	!	!	!	!	!	!	!	!	!null	!	!	!	!	!	!	!	!	!	!	!	!	!	!	!	!	!
!	!	!LO:DY:mod= :t=ppp.	!	!	!	!	!	!	!LO:MO:mod=mi-	!LO:MO:null:mod=f	!	!	!	!	!	!	!	!	!	!	!	!	!	!	!	!	!
8A\L	.	ppp	2c#X/	.	2e/	.	.	8A\	Mi-	.	2d\	-bis	.	2e\	-bis	.	2a\	-bis	.	.	.	.	.	.	.	.	.
8G\	.	.	.	.	.	.	.	8G\	-se-	.	.	.	.	.	.	.	.	.	.	.	.	.	.	.	.	.	.
8F\	.	.	.	.	.	.	.	8F\	-re-	.	.	.	.	.	.	.	.	.	.	.	.	.	.	.	.	.	.
8E\J	.	.	.	.	.	.	.	8E\	-re	.	.	.	.	.	.	.	.	.	.	.	.	.	.	.	.	.	.
!	!	!	!	!	!	!	!	!	!	!	!	!	!	!LO:LB:g=original	!	!	!	!	!	!	!	!	!	!	!	!	!
=20	=20	=20	=20	=20	=20	=20	=20	=20	=20	=20	=20	=20	=20	=20	=20	=20	=20	=20	=20	=20	=20	=20	=20	=20	=20	=20	=20
*2\right	*	*	*	*	*	*	*	*	*	*	*	*	*	*	*	*	*	*	*	*	*	*	*	*	*	*	*
!LO:MO:mod=1D	!	!	!LO:TX:a:t=2:mod=	!	!LO:TX:a:t=2:mod=	!	!	!	!	!	!	!	!	!LO:SIC:s=8d	!	!	!	!	!	!	!	!	!	!	!	!	!
(2D\	.	.	0r	.	0r	.	1ryy	4D\	no-	.	8.A\	mi-	.	8d\L	mi-	.	8fn/	mi-	.	.	.	.	.	.	.	.	.
!	!	!	!	!	!	!	!	!	!	!	!	!	!	!LO:SIC:s=8d	!	!	!	!	!	!	!	!	!	!	!	!	!
.	.	.	.	.	.	.	.	.	.	.	.	.	.	8d\J	-se-	.	8f/	-se-	.	.	.	.	.	.	.	.	.
.	.	.	.	.	.	.	.	.	.	.	16A\	-se-	.	.	.	.	.	.	.	.	.	.	.	.	.	.	.
.	.	.	.	.	.	.	.	4d\	-bis	.	8A\	-re-	.	8.d\	-re-	.	8.f/	-re-	.	.	.	.	.	.	.	.	.
.	.	.	.	.	.	.	.	.	.	.	8A\	-re	.	.	.	.	.	.	.	.	.	.	.	.	.	.	.
.	.	.	.	.	.	.	.	.	.	.	.	.	.	16d\	-re	.	16f/	-re	.	.	.	.	.	.	.	.	.
!LO:MO:mod=.	!	!	!	!	!	!	!	!LO:SIC:s=4c	!	!	!	!	!	!	!	!	!	!	!	!	!	!	!	!	!	!	!
2D\)	.	.	.	.	.	.	.	4cn\	no-	.	4A\	no-	.	4d\	no-	.	4f#X/	no-	.	.	.	.	.	.	.	.	.
!	!	!	!	!	!	!	!	!	!	!	!LO:SIC:s=8.GL	!LO:MO:null:mod=-bis	!	!	!	!	!	!	!	!	!	!	!	!	!	!	!
.	.	.	.	.	.	.	.	8.B-\L	-bis	.	8.G\	.	.	4d\	-bis	.	8.g/L	-bis	.	.	.	.	.	.	.	.	.
!	!	!	!	!	!	!	!	!	!	!	!LO:SIC:s=16AJk	!LO:MO:mod=.	!	!	!	!	!	!	!	!	!	!	!	!	!	!	!
.	.	.	.	.	.	.	.	16A\Jk	.	.	16A\	-bis	.	.	.	.	16a/Jk	.	.	.	.	.	.	.	.	.	.
!	!	!	!	!	!	!	!	!	!	!	!LO:LB:g=original	!	!	!	!	!	!	!	!	!	!	!	!	!	!	!	!
=21	=21	=21	=21	=21	=21	=21	=21	=21	=21	=21	=21	=21	=21	=21	=21	=21	=21	=21	=21	=21	=21	=21	=21	=21	=21	=21	=21
!LO:MO:mod=2.D	!	!	!	!	!	!	!	!	!	!	!	!	!	!	!	!	!LO:SIC:s=8b-	!LO:MO:mod=mi-	!	!	!	!	!	!	!	!	!
(2D\	.	.	.	.	.	.	1ryy	8G\	mi-	.	8d\	mi-	.	8g\	mi-	.	8b-\L	Mi-	.	1r	.	1r	.	1r	.	1r	.
!	!	!	!	!	!	!	!	!	!	!	!	!	!	!	!	!	!LO:SIC:s=8a	!LO:MO:null:mod=-se-	!	!	!	!	!	!	!	!	!
.	.	.	.	.	.	.	.	8A\	-se-	.	8d\	-se-	.	8f\	-se-	.	8a\J	.	.	.	.	.	.	.	.	.	.
!	!	!	!	!	!	!	!	!	!	!	!	!	!	!	!	!	!LO:SIC:s=8g	!LO:MO:mod=-re-	!	!	!	!	!	!	!	!	!
.	.	.	.	.	.	.	.	8B-\	-re-	.	8d\	-re-	.	8e\	-re-	.	8g\L	-se-	.	.	.	.	.	.	.	.	.
!	!	!	!	!	!	!	!	!	!	!	!	!	!	!	!	!	!LO:SIC:s=8a	!LO:MO:mod=-re	!	!	!	!	!	!	!	!	!
.	.	.	.	.	.	.	.	8A\	-re	.	8d\	-re	.	8f\	-re	.	8a\J	re	.	.	.	.	.	.	.	.	.
!LO:MO:mod=.	!	!	!	!	!	!	!	!LO:SIC:s=(4G	!	!	!LO:SIC:s=(4d	!	!	!LO:SIC:s=(4g	!	!	!LO:SIC:s=(4b-	!LO:MO:mod=no-	!	!	!	!	!	!	!	!	!
4D\)	.	.	.	.	.	.	.	4G\	no-	.	4d\	no-	.	4g\	no-	.	4b-\	-re	.	.	.	.	.	.	.	.	.
!	!	!	!	!	!	!	!	!LO:SIC:s=4G#)	!	!	!LO:SIC:s=4f)	!	!	!LO:SIC:s=4b)	!	!	!LO:SIC:s=4dd)	!LO:MO:mod=.	!	!	!	!	!	!	!	!	!
(4GG#X/	.	.	.	.	.	.	.	4G#X\	.	.	4f\	.	.	4bn\	.	.	4dd^\	no-	.	.	.	.	.	.	.	.	.
=22	=22	=22	=22	=22	=22	=22	=22	=22	=22	=22	=22	=22	=22	=22	=22	=22	=22	=22	=22	=22	=22	=22	=22	=22	=22	=22	=22
!	!	!	!	!	!	!	!	!	!LO:MO:mod=-bis.	!	!	!LO:MO:mod=-bis.	!	!	!LO:MO:mod=-bis.	!	!	!LO:MO:mod=-bis.	!	!	!	!	!	!	!	!	!
8AA/L)	.	.	4r	.	4r	.	1ryy	8A\L	-bis	.	4d\	-bis	.	4a\	-bis	.	4a\	-bis	.	4r	.	4r	.	4r	.	4r	.
8D/J	.	.	.	.	.	.	.	8D\J	.	.	.	.	.	.	.	.	.	.	.	.	.	.	.	.	.	.	.
!	!	!	!	!	!	!	!	!	!	!	!	!	!	!	!	!	!	!	!	!	!LO:DY:mod= :t=pp.	!	!	!	!	!	!
4r	.	.	8.F/L	.	8.d/L	.	.	4r	.	.	4r	.	.	4r	.	.	4r	.	.	4d/	pp	4dd\	.	4d/	.	4f/	.
.	.	.	16F/Jk	.	16d/Jk	.	.	.	.	.	.	.	.	.	.	.	.	.	.	.	.	.	.	.	.	.	.
4D\	.	.	4A/	.	4f/	.	.	2r	.	.	2r	.	.	2r	.	.	2r	.	.	4d/	.	4dd\	.	(4f/	.	(4a/	.
!	!	!	!LO:SIC:s=8.EL 8.C#	!	!	!	!	!	!	!	!	!	!	!	!	!	!	!	!	!	!	!	!	!	!	!	!
4r	.	.	8.F/L 8.E/	.	8.G/L	.	.	.	.	.	.	.	.	.	.	.	.	.	.	4r	.	4r	.	4c#X/)	.	4g/)	.
!	!	!	!LO:SIC:s=16EJk 16C#	!	!	!	!	!	!	!	!	!	!	!	!	!	!	!	!	!	!	!	!	!	!	!	!
.	.	.	16F/Jk 16E/	.	16G/Jk	.	.	.	.	.	.	.	.	.	.	.	.	.	.	.	.	.	.	.	.	.	.
!	!	!	!LO:LB:g=original	!	!	!	!	!	!	!	!	!	!	!	!	!	!	!	!	!	!	!	!	!	!	!	!
=23	=23	=23	=23	=23	=23	=23	=23	=23	=23	=23	=23	=23	=23	=23	=23	=23	=23	=23	=23	=23	=23	=23	=23	=23	=23	=23	=23
!	!	!	!	!	!LO:MO:mod=*tremolo	!	!	!	!	!	!	!	!	!	!	!	!	!	!	!	!	!	!	!	!	!	!
*	*	*	*tremolo	*	*null	*	*	*	*	*	*	*	*	*	*	*	*	*	*	*	*	*	*	*	*	*	*
4D\	.	.	8F/L	.	8A/L	.	1ryy	1r	.	.	1r	.	.	1r	.	.	1r	.	.	4d/	.	4dd\	.	4d/	.	4f/	.
.	.	.	8A/	.	8d/	.	.	.	.	.	.	.	.	.	.	.	.	.	.	.	.	.	.	.	.	.	.
4D\	.	.	8F/	.	8A/	.	.	.	.	.	.	.	.	.	.	.	.	.	.	4d/	.	4dd\	.	4d/	.	4f/	.
.	.	.	8A/J	.	8d/J	.	.	.	.	.	.	.	.	.	.	.	.	.	.	.	.	.	.	.	.	.	.
!	!	!	!	!	!LO:MO:mod=*Xtremolo	!	!	!	!	!	!	!	!	!	!	!	!	!	!	!	!	!	!	!	!	!	!
*	*	*	*Xtremolo	*	*null	*	*	*	*	*	*	*	*	*	*	*	*	*	*	*	*	*	*	*	*	*	*
4D\	.	.	4F/	.	4A/	.	.	.	.	.	.	.	.	.	.	.	.	.	.	4d/	.	4dd\	.	4d/	.	4f/	.
4r	.	.	4r	.	4r	.	.	.	.	.	.	.	.	.	.	.	.	.	.	4r	.	4r	.	4r	.	4r	.
==	==	==	==	==	==	==	==	==	==	==	==	==	==	==	==	==	==	==	==	==	==	==	==	==	==	==	==
*-	*-	*-	*-	*-	*-	*-	*-	*-	*-	*-	*-	*-	*-	*-	*-	*-	*-	*-	*-	*-	*-	*-	*-	*-	*-	*-	*-
!!!system-decoration: [(s1,s2)][(s3,s4)][(s5,s6,s7,s8)][(s9,s10,s11)]<s12>
!!!ENC: Andrzej Gręziak
!!!END: 2021-12-08
!!!ENC: Leszek Kubiak
!!!END: 2021-12-13
!!!ENC-modern: Andrzej Kubiczek
!!!END-modern: 2022-08-24
!!!filter-modern: shed -k -e "s/([^a-gA-Gn#X-])[<>]/$1/g" | shed -e "s/^(\d+[\/\\]right)/$1yy/I" | shed -e "s/TX(.*):t=P:/tx$1:t=P:/LG" | shed -e "s/:rj/:RJ/L" | shed -e "s/^(X?)rep$/$1REP/I" | sic -sq | modori -m | autostem -r | tie -s | humtr -p | shed -e "s/yy//"
!!!YEC: Copyright 2022 Narodowy Instytut Fryderyka Chopina (https://polishscores.org)
!!!YEM: License CC-BY-4.0 (https://creativecommons.org/licenses/by/4.0)
